X: 25873
T: Matt Cranitch's Blackwater
R: polka
M: 2/4
K: Dmajor
|:Fd B>B|AF ED|FA DE|FE E2|
Ad BA/B/|AF ED|FB AB/A/|ED D2:|
|:FA Bc|d2 cd|fd/f/ ed|fe e2|
df/d/ ed|BA FE|F2 AB|ED D2:|

